**kern	**silbe
*ICvox	*
*e:	*
*M4/4	*
*clefG2	*
r;	.
=1	=1
1r	.
=2	=2
1r	.
=3	=3
1r	.
=4	=4
1r	.
=5	=5
1r	.
=6	=6
1r	.
=7	=7
1r	.
=8	=8
1r	.
=9	=9
1r	.
=10	=10
1r	.
=11	=11
8ee	God-
8ee	-dess
8dd#	on
8cc#	the
8cc#	moun-
8b	-tain
8cc#	_
8cc#	top
=12	=12
1r	.
=13	=13
8ee	bur-
8ee	-ning
8dd#	like
8cc#	a
8cc#	sil-
4cc#	-ver
8cc#	flame
=14	=14
2r	.
4r	.
8r	.
8cc#	the
=15	=15
8ee	sum-
8ee	-mit
8dd#	of
4cc#	beau-
8cc#	-ty
8cc#	and
8cc#	love
=16	=16
2r	.
4r	.
8r	.
8cc#	and
=17	=17
8ee	Ve-
8ee	-nus
8dd#	was
8cc#	her
8cc#	name
8dd#	_
4r	.
=18	=18
2r	.
4r	.
8r	.
8ee	She's
=19	=19
8ff#	got
4ff#	it
8r	.
2r	.
=20	=20
4r	.
8ff#	Yeah
4ff#	ba-
8ee	-by
4ff#	she's
=21	=21
8ee	got
4cc#	it
8r	.
2r	.
=22	=22
1r	.
=23	=23
8r	.
4ee	I'm
8cc#	your
8cc#	Ve-
8ee	-nus
4r	.
=24	=24
8r	.
4gg#	I'm
8gg#	your
8ff#	fi-
8gg#	-re
8cc#	at
8[ee	your
=25	=25
8ee]	_
8cc#	de-
8b	-si-
8cc#	-re
2r	.
=26	=26
2r	.
4r	.
4cc#	Well
=27	=27
8r	.
4ee	I'm
8cc#	your
8cc#	Ve-
8ee	-nus
4r	.
=28	=28
8r	.
4gg#	I'm
8gg#	your
8ff#	fi-
8gg#	-re
8cc#	at
8[ee	your
=29	=29
8ee]	_
8cc#	de-
8b	-si-
8cc#	-re
2r	.
=30	=30
2r	.
4r	.
8r	.
8cc#	Her
=31	=31
8ee	wea-
8ee	-pons
8dd#	were
8b	her
8cc#	cry-
4cc#	-stal
8cc#	eyes
=32	=32
1r	.
=33	=33
8ee	ma-
8ee	-king
8ee	ev'-
8ff#	-ry
8dd#	man
4b	_
8cc#	mad
=34	=34
1r	.
=35	=35
8ee	black
8ee	as
8ee	the
8ee	dark
8dd#	_
4cc#	night
8[dd#	she
=36	=36
8dd#]	_
8cc#	was
4r	.
8r	.
8ee	got
8ee	what
8[ee	no
=37	=37
8ee]	_
8ee	one
8dd#	else
8cc#	_
8cc#	had
8r	.
4r	.
=38	=38
2r	.
4r	.
8r	.
8ee	She's
=39	=39
8ff#	got
8ff#	it
4r	.
2r	.
=40	=40
4r	.
8ff#	Yeah
4ff#	ba-
8ee	-by
4ff#	she's
=41	=41
8ee	got
8cc#	it
4r	.
2r	.
=42	=42
1r	.
=43	=43
8r	.
4ee	I'm
8cc#	your
8cc#	Ve-
8ee	-nus
4r	.
=44	=44
8r	.
4gg#	I'm
8gg#	your
8ff#	fi-
8gg#	-re
8cc#	at
8[ee	your
=45	=45
8ee]	_
8cc#	de-
8b	-si-
8cc#	-re
2r	.
=46	=46
2r	.
4r	.
4cc#	Well
=47	=47
8r	.
4ee	I'm
8cc#	your
8cc#	Ve-
8ee	-nus
4r	.
=48	=48
8r	.
4gg#	I'm
8gg#	your
8ff#	fi-
8gg#	-re
8cc#	at
8[ee	your
=49	=49
8ee]	_
8cc#	de-
8b	-si-
8cc#	-re
2r	.
=50	=50
1r	.
=51	=51
1r	.
=52	=52
1r	.
=53	=53
1r	.
=54	=54
1r	.
=55	=55
1r	.
=56	=56
1r	.
=57	=57
1r	.
=58	=58
1r	.
=59	=59
1r	.
=60	=60
8cc#	(Ve-
8cc#	-nus)
2r	.
8r	.
8ee	She's
=61	=61
8ff#	got
8ff#	it
4r	.
2r	.
=62	=62
4r	.
8ff#	Yeah
4ff#	ba-
8ee	-by
4ff#	she's
=63	=63
8ee	got
8cc#	it
4r	.
2r	.
=64	=64
1r	.
=65	=65
8r	.
4ee	I'm
8cc#	your
8cc#	Ve-
8ee	-nus
4r	.
=66	=66
8r	.
4gg#	I'm
8gg#	your
8ff#	fi-
8gg#	-re
8cc#	at
8[ee	your
=67	=67
8ee]	_
8cc#	de-
8b	-si-
8cc#	-re
2r	.
=68	=68
2r	.
4r	.
4cc#	Well
=69	=69
8r	.
4ee	I'm
8cc#	your
8cc#	Ve-
8ee	-nus
4r	.
=70	=70
8r	.
4gg#	I'm
8gg#	your
8ff#	fi-
8gg#	-re
8cc#	at
8[ee	your
=71	=71
8ee]	_
8cc#	de-
8b	-si-
8cc#	-re
2r	.
=72	=72
1r	.
=73	=73
8ee	God-
8ee	-dess
8dd#	on
8cc#	the
8cc#	moun-
8b	-tain
8cc#	_
8cc#	top
=74	=74
1r	.
=75	=75
8ee	bur-
8ee	-ning
8dd#	like
8cc#	a
8cc#	sil-
4cc#	-ver
8cc#	flame
=76	=76
2r	.
4r	.
8r	.
8cc#	the
=77	=77
8ee	sum-
8ee	-mit
8dd#	of
4cc#	beau-
8cc#	-ty
8cc#	and
8cc#	love
=78	=78
2r	.
4r	.
8r	.
8cc#	and
=79	=79
8ee	Ve-
8ee	-nus
8dd#	was
8cc#	her
8cc#	name
8dd#	_
4r	.
=80	=80
2r	.
4r	.
8r	.
8ee	She's
=81	=81
8ff#	got
8ff#	it
4r	.
2r	.
=82	=82
4r	.
8ff#	Yeah
4ff#	ba-
8ee	-by
4ff#	she's
=83	=83
8ee	got
8cc#	it
4r	.
2r	.
=84	=84
1r	.
=85	=85
8r	.
4ee	I'm
8cc#	your
8cc#	Ve-
8ee	-nus
4r	.
=86	=86
8r	.
4gg#	I'm
8gg#	your
8ff#	fi-
8gg#	-re
8cc#	at
8[ee	your
=87	=87
8ee]	_
8cc#	de-
8b	-si-
8cc#	-re
2r	.
=88	=88
2r	.
4r	.
4cc#	Well
=89	=89
8r	.
4ee	I'm
8cc#	your
8cc#	Ve-
8ee	-nus
4r	.
=90	=90
8r	.
4gg#	I'm
8gg#	your
8ff#	fi-
8gg#	-re
8cc#	at
8[ee	your
=91	=91
8ee]	_
8cc#	de-
8b	-si-
8cc#	-re
2r	.
=92	=92
1r	.
=93	=93
2r	.
4r	.
8r	.
8[b	(Ve-
=94	=94
8b]	_
8b	nus
8a#	was
8g#	her
8g#	name)
8a#	_
8r	.
8r	.
=95	=95
1r	.
=96	=96
1r	.
=97	=97
1r	.
=98	=98
4r	.
8ff#	Yeah
4ff#	ba-
8ee	-by
4ff#	she's
=99	=99
8ee	got
8cc#	it
4r	.
2r	.
=100	=100
4r	.
8ff#	Yeah
4ff#	ba-
8ee	-by
4ff#	she's
=101	=101
8ee	got
8cc#	it
4r	.
2r	.
=102	=102
4r	.
8ff#	Yeah
4ff#	ba-
8ee	-by
4ff#	she's
=103	=103
8ee	got
8cc#	it
4r	.
2r	.
=104	=104
4r	.
8ff#	Yeah
4ff#	ba-
8ee	-by
4ff#	she's
=105	=105
8ee	got
8cc#	it
4r	.
2r	.
=106	=106
4r	.
8ff#	Yeah
4ff#	ba-
8ee	-by
4ff#	she's
=107	=107
8ee	got
8cc#	it
4r	.
2r	.
=108	=108
4r	.
8ff#	Yeah
4ff#	ba-
8ee	-by
4ff#	she's
=109	=109
8ee	got
8cc#	it
4r	.
2r	.
=110	=110
4r	.
8ff#	Yeah
4ff#	ba-
8ee	-by
4ff#	she's
=111	=111
8ee	got
8cc#	it
4r	.
2r	.
=112	=112
1r	.
r;	.
r;	.
*-	*-
!!!ENC: Nathaniel Condit-Schultz